!!!COM: Josephine Lang
!!!CNT: Deutsch
!!!TXO: Deutsch
!!!OTL: "O sehntest Du dich so nach mir"
!!!LYR: Reinhold
!!!OPS: Op. 14
!!!ONM: No. 1
!!!ENC: Alyona Dzerbina, edited by LVH
!!!YOR: Josephine Lang: Selected Songs
!!!YOR: Da Capo Press, 1982
!!!ODT: 1840/
!!NB: Vocal melody only encoded.
**kern	**text
*staff1	*staff1
*clefG2	*
*k[f#c#]	*
*met(C)	*
*M4/4	*
*MM[Langsam und ausdrucksvoll]	*
1r	.
=2	=2
2r	.
4r	.
8r	.
{8d	{O
=3!|:	=3!|:
4.d	sehn-
8d	-test
4f#	du
4f#	dich
=4	=4
4.a	so
8g	nach
(4g	mir,
4f#)}	|}
=5	=5
4r	.
{4f#	{wie
4.b	ich
8b	nach
=6	=6
1cc#}	dir,}
=7	=7
{2dd	{du
4.b	ka2mst
8g	zu
=8	=8
2.dd}	mir,}
4r	.
=9	=9
{2.f#	{du
8.e	ka2mst
16d	zu
=10	=10
2a}	mir!}
4r	.
8r	.
{8a	{Mein
=11	=11
4.a	Aug'
8e	ist
8cn	nur
8e	nach
8a	dir
8b	ein
=12	=12
2.ccn}	Strahl}
4r	.
=13	=13
4r	.
{4b	{voll
4.b	su2s-
8a	-ser
=14	=14
2a	Qual,
2g}	|}
=15	=15
4r	.
{4g	{o
4.gg	komm'
8ee	ein-
=16	=16
(4dd	-mal!
2.cc#)}	|}
=17	=17
1r	.
=18	=18
2r	.
{(4e	{O
8.B	komm
16c#	ein
=19	=19
2d)}	mal!}
2r	.
=20	=20
1r	.
=21	=21
1r	.
==	==
*-	*-
